X: 37208
T: Sir Wilfrid Laurier's
R: jig
M: 6/8
K: Gmajor
M:12/8
b/d/|gfg BAB d3 dag|f2 e e2 c e3 eag|
fef A2 B c3 cBc|d2 e dBG B3 Bba|
gfg BAB d3 dag|f2 e e2 c e3 e2 f|
gag gdB ded dBd|fed cBA G3 G2||
D|GAG GDG ded B2 d|dBd dBd ege c2 e|
ece ece g3 fag|fed cBA B3 d2 B|
GAG GDG ded B<Bd|dBd dBd ege c<ce|
ece ece g3 fag|fed cBA G3 G2||

